(.../pcb-gcode-3.6.2.4/pcb-gcode.ulp)
(Copyright 2005 - 2012 by John Johnson)
(See readme.txt for licensing terms.)
(This file generated from the board:)
(.../Hacks/Router/eagle/arduino.brd)
(Current profile is .../pcb-gcode-3.6.2.4/profiles/generic.pp  )
(This file generated 06/07/2014 18:11)
(Settings from pcb-machine.h)
(spindle on time = 3.0000)
(  Tool Size)
(0.1778 )
(spindle speed = 30000.0000)
(tool change at 0.0000 0.0000 25.4000 )
(feed rate xy = F508.00 )
(feed rate z  = F254.00 )
(Z Axis Settings)
(  High     Up        Down     Drill)
(12.7000 	2.5400 	-0.1778 	-0.8128 )
(Settings from pcb-defaults.h)
(isolate min = 0.0254)
(isolate max = 0.5080)
(isolate step = 0.1270)
(Generated bottom outlines, )
(Unit of measure: mm)
(Metric Mode)
G21
(Absolute Coordinates)
G90
S30000
G00 Z12.7000 
G00 X0.0000 Y0.0000 
M03
G04 P3.000000
G00 Z2.5400 
G00 X2.9672 Y2.0996 
G01 Z-0.1778 F254.00 
G01 X3.0902 Y1.9766 F508.00 
G01 X3.2309 Y1.8744 
G01 X3.3859 Y1.7954 
G01 X3.5513 Y1.7417 
G01 X3.7230 Y1.7145 
G01 X3.8970 Y1.7145 
G01 X4.0687 Y1.7417 
G01 X4.2341 Y1.7954 
G01 X4.3891 Y1.8744 
G01 X4.5298 Y1.9766 
G01 X4.6528 Y2.0996 
G01 X4.7550 Y2.2403 
G01 X4.8339 Y2.3953 
G01 X4.8877 Y2.5607 
G01 X4.9149 Y2.7324 
G01 X4.9149 Y4.8876 
G01 X4.8877 Y5.0593 
G01 X4.8339 Y5.2247 
G01 X4.7550 Y5.3797 
G01 X4.6528 Y5.5204 
G01 X4.5298 Y5.6434 
G01 X4.3891 Y5.7456 
G01 X4.2341 Y5.8245 
G01 X4.2291 Y5.8262 
G01 X4.2291 Y6.4052 
G01 X4.2005 Y6.5118 
G01 X4.1454 Y6.6073 
G01 X4.0673 Y6.6854 
G01 X1.6891 Y9.0636 
G01 X1.6891 Y10.1320 
G01 X1.7598 Y10.1792 
G01 X1.8668 Y10.2862 
G01 X1.9509 Y10.4121 
G01 X2.0088 Y10.5519 
G01 X2.0383 Y10.7003 
G01 X2.0383 Y12.1597 
G01 X2.0088 Y12.3081 
G01 X1.9509 Y12.4479 
G01 X1.8668 Y12.5738 
G01 X1.7598 Y12.6808 
G01 X1.6339 Y12.7649 
G01 X1.4941 Y12.8228 
G01 X1.3457 Y12.8523 
G01 X1.1943 Y12.8523 
G01 X1.0459 Y12.8228 
G01 X0.9061 Y12.7649 
G01 X0.7802 Y12.6808 
G01 X0.6732 Y12.5738 
G01 X0.5891 Y12.4479 
G01 X0.5312 Y12.3081 
G01 X0.5017 Y12.1597 
G01 X0.5017 Y10.7003 
G01 X0.5312 Y10.5519 
G01 X0.5891 Y10.4121 
G01 X0.6732 Y10.2862 
G01 X0.7802 Y10.1792 
G01 X0.8509 Y10.1320 
G01 X0.8509 Y8.8348 
G01 X0.8795 Y8.7282 
G01 X0.9346 Y8.6327 
G01 X3.3909 Y6.1764 
G01 X3.3909 Y5.8262 
G01 X3.3859 Y5.8245 
G01 X3.2309 Y5.7456 
G01 X3.0902 Y5.6434 
G01 X2.9672 Y5.5204 
G01 X2.8650 Y5.3797 
G01 X2.7860 Y5.2247 
G01 X2.7323 Y5.0593 
G01 X2.7051 Y4.8876 
G01 X2.7051 Y2.7324 
G01 X2.7323 Y2.5607 
G01 X2.7860 Y2.3953 
G01 X2.8650 Y2.2403 
G01 X2.9672 Y2.0996 
G00 Z2.5400 
G00 X8.0472 Y2.0996 
G01 Z-0.1778 F254.00 
G01 X8.1702 Y1.9766 F508.00 
G01 X8.3109 Y1.8744 
G01 X8.4659 Y1.7954 
G01 X8.6313 Y1.7417 
G01 X8.8030 Y1.7145 
G01 X8.9770 Y1.7145 
G01 X9.1487 Y1.7417 
G01 X9.3141 Y1.7954 
G01 X9.4691 Y1.8744 
G01 X9.6098 Y1.9766 
G01 X9.7328 Y2.0996 
G01 X9.8350 Y2.2403 
G01 X9.9139 Y2.3953 
G01 X9.9677 Y2.5607 
G01 X9.9949 Y2.7324 
G01 X9.9949 Y4.8876 
G01 X9.9677 Y5.0593 
G01 X9.9139 Y5.2247 
G01 X9.8350 Y5.3797 
G01 X9.7328 Y5.5204 
G01 X9.6098 Y5.6434 
G01 X9.4691 Y5.7456 
G01 X9.3141 Y5.8245 
G01 X9.3091 Y5.8262 
G01 X9.3091 Y10.1320 
G01 X9.3798 Y10.1792 
G01 X9.4868 Y10.2862 
G01 X9.5709 Y10.4121 
G01 X9.6288 Y10.5519 
G01 X9.6583 Y10.7003 
G01 X9.6583 Y12.1597 
G01 X9.6288 Y12.3081 
G01 X9.5709 Y12.4479 
G01 X9.4868 Y12.5738 
G01 X9.3798 Y12.6808 
G01 X9.3091 Y12.7280 
G01 X9.3091 Y14.0252 
G01 X9.2805 Y14.1318 
G01 X9.2254 Y14.2273 
G01 X8.5344 Y14.9183 
G01 X8.5344 Y15.6188 
G01 X7.9988 Y16.1544 
G01 X7.2412 Y16.1544 
G01 X6.7056 Y15.6188 
G01 X6.7056 Y14.8612 
G01 X7.2412 Y14.3256 
G01 X7.9417 Y14.3256 
G01 X8.4709 Y13.7964 
G01 X8.4709 Y12.7280 
G01 X8.4002 Y12.6808 
G01 X8.2932 Y12.5738 
G01 X8.2091 Y12.4479 
G01 X8.1512 Y12.3081 
G01 X8.1217 Y12.1597 
G01 X8.1217 Y10.7003 
G01 X8.1512 Y10.5519 
G01 X8.2091 Y10.4121 
G01 X8.2932 Y10.2862 
G01 X8.4002 Y10.1792 
G01 X8.4709 Y10.1320 
G01 X8.4709 Y5.8262 
G01 X8.4659 Y5.8245 
G01 X8.3109 Y5.7456 
G01 X8.1702 Y5.6434 
G01 X8.0472 Y5.5204 
G01 X7.9450 Y5.3797 
G01 X7.8661 Y5.2247 
G01 X7.8123 Y5.0593 
G01 X7.7851 Y4.8876 
G01 X7.7851 Y2.7324 
G01 X7.8123 Y2.5607 
G01 X7.8661 Y2.3953 
G01 X7.9450 Y2.2403 
G01 X8.0472 Y2.0996 
G00 Z2.5400 
G00 X10.5872 Y2.0996 
G01 Z-0.1778 F254.00 
G01 X10.7102 Y1.9766 F508.00 
G01 X10.8509 Y1.8744 
G01 X11.0059 Y1.7954 
G01 X11.1713 Y1.7417 
G01 X11.3430 Y1.7145 
G01 X11.5170 Y1.7145 
G01 X11.6887 Y1.7417 
G01 X11.8541 Y1.7954 
G01 X12.0091 Y1.8744 
G01 X12.1498 Y1.9766 
G01 X12.2728 Y2.0996 
G01 X12.3750 Y2.2403 
G01 X12.4539 Y2.3953 
G01 X12.5077 Y2.5607 
G01 X12.5349 Y2.7324 
G01 X12.5349 Y4.8876 
G01 X12.5077 Y5.0593 
G01 X12.4539 Y5.2247 
G01 X12.3750 Y5.3797 
G01 X12.2728 Y5.5204 
G01 X12.1498 Y5.6434 
G01 X12.0091 Y5.7456 
G01 X11.8541 Y5.8245 
G01 X11.8491 Y5.8262 
G01 X11.8491 Y10.1320 
G01 X11.9198 Y10.1792 
G01 X12.0268 Y10.2862 
G01 X12.1109 Y10.4121 
G01 X12.1688 Y10.5519 
G01 X12.1983 Y10.7003 
G01 X12.1983 Y12.1597 
G01 X12.1688 Y12.3081 
G01 X12.1109 Y12.4479 
G01 X12.0268 Y12.5738 
G01 X11.9198 Y12.6808 
G01 X11.8491 Y12.7280 
G01 X11.8491 Y12.7552 
G01 X11.8205 Y12.8618 
G01 X11.7654 Y12.9573 
G01 X11.2141 Y13.5086 
G01 X11.2141 Y16.5652 
G01 X11.1855 Y16.6718 
G01 X11.1304 Y16.7673 
G01 X9.8604 Y18.0373 
G01 X9.7823 Y18.1154 
G01 X9.6868 Y18.1705 
G01 X9.5802 Y18.1991 
G01 X8.4941 Y18.1991 
G01 X7.9988 Y18.6944 
G01 X7.2412 Y18.6944 
G01 X6.7056 Y18.1588 
G01 X6.7056 Y17.4012 
G01 X7.2412 Y16.8656 
G01 X7.9988 Y16.8656 
G01 X8.4941 Y17.3609 
G01 X9.3514 Y17.3609 
G01 X10.3759 Y16.3364 
G01 X10.3759 Y13.2798 
G01 X10.4045 Y13.1732 
G01 X10.4596 Y13.0777 
G01 X10.5377 Y12.9996 
G01 X10.8984 Y12.6389 
G01 X10.8332 Y12.5738 
G01 X10.7491 Y12.4479 
G01 X10.6912 Y12.3081 
G01 X10.6617 Y12.1597 
G01 X10.6617 Y10.7003 
G01 X10.6912 Y10.5519 
G01 X10.7491 Y10.4121 
G01 X10.8332 Y10.2862 
G01 X10.9402 Y10.1792 
G01 X11.0109 Y10.1320 
G01 X11.0109 Y5.8262 
G01 X11.0059 Y5.8245 
G01 X10.8509 Y5.7456 
G01 X10.7102 Y5.6434 
G01 X10.5872 Y5.5204 
G01 X10.4850 Y5.3797 
G01 X10.4061 Y5.2247 
G01 X10.3523 Y5.0593 
G01 X10.3251 Y4.8876 
G01 X10.3251 Y2.7324 
G01 X10.3523 Y2.5607 
G01 X10.4061 Y2.3953 
G01 X10.4850 Y2.2403 
G01 X10.5872 Y2.0996 
G00 Z2.5400 
G00 X13.1272 Y2.0996 
G01 Z-0.1778 F254.00 
G01 X13.2502 Y1.9766 F508.00 
G01 X13.3909 Y1.8744 
G01 X13.5459 Y1.7954 
G01 X13.7113 Y1.7417 
G01 X13.8830 Y1.7145 
G01 X14.0570 Y1.7145 
G01 X14.2287 Y1.7417 
G01 X14.3941 Y1.7954 
G01 X14.5491 Y1.8744 
G01 X14.6898 Y1.9766 
G01 X14.8128 Y2.0996 
G01 X14.9150 Y2.2403 
G01 X14.9939 Y2.3953 
G01 X15.0477 Y2.5607 
G01 X15.0749 Y2.7324 
G01 X15.0749 Y4.8876 
G01 X15.0477 Y5.0593 
G01 X14.9939 Y5.2247 
G01 X14.9150 Y5.3797 
G01 X14.8128 Y5.5204 
G01 X14.6898 Y5.6434 
G01 X14.5491 Y5.7456 
G01 X14.3941 Y5.8245 
G01 X14.3891 Y5.8262 
G01 X14.3891 Y10.1320 
G01 X14.4598 Y10.1792 
G01 X14.5668 Y10.2862 
G01 X14.6509 Y10.4121 
G01 X14.7088 Y10.5519 
G01 X14.7383 Y10.7003 
G01 X14.7383 Y12.1597 
G01 X14.7088 Y12.3081 
G01 X14.6509 Y12.4479 
G01 X14.5668 Y12.5738 
G01 X14.4598 Y12.6808 
G01 X14.3339 Y12.7649 
G01 X14.1941 Y12.8228 
G01 X14.0457 Y12.8523 
G01 X13.8943 Y12.8523 
G01 X13.7951 Y12.8326 
G01 X12.4841 Y14.1436 
G01 X12.4841 Y19.1052 
G01 X12.4555 Y19.2118 
G01 X12.4004 Y19.3073 
G01 X11.1304 Y20.5773 
G01 X11.0523 Y20.6554 
G01 X10.9568 Y20.7105 
G01 X10.8502 Y20.7391 
G01 X8.4941 Y20.7391 
G01 X7.9988 Y21.2344 
G01 X7.2412 Y21.2344 
G01 X6.7056 Y20.6988 
G01 X6.7056 Y19.9412 
G01 X7.2412 Y19.4056 
G01 X7.9988 Y19.4056 
G01 X8.4941 Y19.9009 
G01 X10.6214 Y19.9009 
G01 X11.6459 Y18.8764 
G01 X11.6459 Y13.9148 
G01 X11.6745 Y13.8082 
G01 X11.7296 Y13.7127 
G01 X11.8077 Y13.6346 
G01 X13.2151 Y12.2272 
G01 X13.2017 Y12.1597 
G01 X13.2017 Y10.7003 
G01 X13.2312 Y10.5519 
G01 X13.2891 Y10.4121 
G01 X13.3732 Y10.2862 
G01 X13.4802 Y10.1792 
G01 X13.5509 Y10.1320 
G01 X13.5509 Y5.8262 
G01 X13.5459 Y5.8245 
G01 X13.3909 Y5.7456 
G01 X13.2502 Y5.6434 
G01 X13.1272 Y5.5204 
G01 X13.0250 Y5.3797 
G01 X12.9460 Y5.2247 
G01 X12.8923 Y5.0593 
G01 X12.8651 Y4.8876 
G01 X12.8651 Y2.7324 
G01 X12.8923 Y2.5607 
G01 X12.9460 Y2.3953 
G01 X13.0250 Y2.2403 
G01 X13.1272 Y2.0996 
G00 Z2.5400 
G00 X15.6672 Y2.0996 
G01 Z-0.1778 F254.00 
G01 X15.7902 Y1.9766 F508.00 
G01 X15.9309 Y1.8744 
G01 X16.0859 Y1.7954 
G01 X16.2513 Y1.7417 
G01 X16.4230 Y1.7145 
G01 X16.5970 Y1.7145 
G01 X16.7687 Y1.7417 
G01 X16.9341 Y1.7954 
G01 X17.0891 Y1.8744 
G01 X17.2298 Y1.9766 
G01 X17.3528 Y2.0996 
G01 X17.4550 Y2.2403 
G01 X17.5339 Y2.3953 
G01 X17.5877 Y2.5607 
G01 X17.6149 Y2.7324 
G01 X17.6149 Y4.8876 
G01 X17.5877 Y5.0593 
G01 X17.5339 Y5.2247 
G01 X17.4550 Y5.3797 
G01 X17.3528 Y5.5204 
G01 X17.2298 Y5.6434 
G01 X17.0891 Y5.7456 
G01 X16.9341 Y5.8245 
G01 X16.9291 Y5.8262 
G01 X16.9291 Y10.1320 
G01 X16.9998 Y10.1792 
G01 X17.1068 Y10.2862 
G01 X17.1909 Y10.4121 
G01 X17.2488 Y10.5519 
G01 X17.2783 Y10.7003 
G01 X17.2783 Y12.1597 
G01 X17.2488 Y12.3081 
G01 X17.1909 Y12.4479 
G01 X17.1068 Y12.5738 
G01 X16.9998 Y12.6808 
G01 X16.9291 Y12.7280 
G01 X16.9291 Y12.7552 
G01 X16.9005 Y12.8618 
G01 X16.8454 Y12.9573 
G01 X16.2104 Y13.5923 
G01 X16.1323 Y13.6704 
G01 X16.0368 Y13.7255 
G01 X15.9302 Y13.7541 
G01 X14.7786 Y13.7541 
G01 X13.7541 Y14.7786 
G01 X13.7541 Y21.6452 
G01 X13.7255 Y21.7518 
G01 X13.6704 Y21.8473 
G01 X12.4004 Y23.1173 
G01 X12.3223 Y23.1954 
G01 X12.2268 Y23.2505 
G01 X12.1202 Y23.2791 
G01 X8.4941 Y23.2791 
G01 X7.9988 Y23.7744 
G01 X7.2412 Y23.7744 
G01 X6.7056 Y23.2388 
G01 X6.7056 Y22.4812 
G01 X7.2412 Y21.9456 
G01 X7.9988 Y21.9456 
G01 X8.4941 Y22.4409 
G01 X11.8914 Y22.4409 
G01 X12.9159 Y21.4164 
G01 X12.9159 Y14.5498 
G01 X12.9445 Y14.4432 
G01 X12.9996 Y14.3477 
G01 X13.0777 Y14.2696 
G01 X14.3477 Y12.9996 
G01 X14.4432 Y12.9445 
G01 X14.5498 Y12.9159 
G01 X15.7014 Y12.9159 
G01 X15.9784 Y12.6389 
G01 X15.9132 Y12.5738 
G01 X15.8291 Y12.4479 
G01 X15.7712 Y12.3081 
G01 X15.7417 Y12.1597 
G01 X15.7417 Y10.7003 
G01 X15.7712 Y10.5519 
G01 X15.8291 Y10.4121 
G01 X15.9132 Y10.2862 
G01 X16.0202 Y10.1792 
G01 X16.0909 Y10.1320 
G01 X16.0909 Y5.8262 
G01 X16.0859 Y5.8245 
G01 X15.9309 Y5.7456 
G01 X15.7902 Y5.6434 
G01 X15.6672 Y5.5204 
G01 X15.5650 Y5.3797 
G01 X15.4861 Y5.2247 
G01 X15.4323 Y5.0593 
G01 X15.4051 Y4.8876 
G01 X15.4051 Y2.7324 
G01 X15.4323 Y2.5607 
G01 X15.4861 Y2.3953 
G01 X15.5650 Y2.2403 
G01 X15.6672 Y2.0996 
G00 Z2.5400 
G00 X18.2072 Y2.0996 
G01 Z-0.1778 F254.00 
G01 X18.3302 Y1.9766 F508.00 
G01 X18.4709 Y1.8744 
G01 X18.6259 Y1.7954 
G01 X18.7913 Y1.7417 
G01 X18.9630 Y1.7145 
G01 X19.1370 Y1.7145 
G01 X19.3087 Y1.7417 
G01 X19.4741 Y1.7954 
G01 X19.6291 Y1.8744 
G01 X19.7698 Y1.9766 
G01 X19.8928 Y2.0996 
G01 X19.9950 Y2.2403 
G01 X20.0739 Y2.3953 
G01 X20.1277 Y2.5607 
G01 X20.1549 Y2.7324 
G01 X20.1549 Y4.8876 
G01 X20.1277 Y5.0593 
G01 X20.0739 Y5.2247 
G01 X19.9950 Y5.3797 
G01 X19.8928 Y5.5204 
G01 X19.7698 Y5.6434 
G01 X19.6291 Y5.7456 
G01 X19.4741 Y5.8245 
G01 X19.4691 Y5.8262 
G01 X19.4691 Y10.1320 
G01 X19.5398 Y10.1792 
G01 X19.6468 Y10.2862 
G01 X19.7309 Y10.4121 
G01 X19.7888 Y10.5519 
G01 X19.8183 Y10.7003 
G01 X19.8183 Y12.1597 
G01 X19.7888 Y12.3081 
G01 X19.7309 Y12.4479 
G01 X19.6468 Y12.5738 
G01 X19.5816 Y12.6389 
G01 X19.8586 Y12.9159 
G01 X21.0102 Y12.9159 
G01 X21.1168 Y12.9445 
G01 X21.2123 Y12.9996 
G01 X22.4823 Y14.2696 
G01 X22.5604 Y14.3477 
G01 X22.6155 Y14.4432 
G01 X22.6441 Y14.5498 
G01 X22.6441 Y20.7814 
G01 X24.3036 Y22.4409 
G01 X27.0659 Y22.4409 
G01 X27.5612 Y21.9456 
G01 X28.3188 Y21.9456 
G01 X28.8544 Y22.4812 
G01 X28.8544 Y23.2388 
G01 X28.3188 Y23.7744 
G01 X27.5612 Y23.7744 
G01 X27.0659 Y23.2791 
G01 X24.0748 Y23.2791 
G01 X23.9682 Y23.2505 
G01 X23.8727 Y23.1954 
G01 X21.9677 Y21.2904 
G01 X21.8896 Y21.2123 
G01 X21.8345 Y21.1168 
G01 X21.8059 Y21.0102 
G01 X21.8059 Y14.7786 
G01 X20.7814 Y13.7541 
G01 X19.6298 Y13.7541 
G01 X19.5232 Y13.7255 
G01 X19.4277 Y13.6704 
G01 X19.3496 Y13.5923 
G01 X18.7927 Y13.0354 
G01 X18.7146 Y12.9573 
G01 X18.6595 Y12.8618 
G01 X18.6309 Y12.7552 
G01 X18.6309 Y12.7280 
G01 X18.5602 Y12.6808 
G01 X18.4532 Y12.5738 
G01 X18.3691 Y12.4479 
G01 X18.3112 Y12.3081 
G01 X18.2817 Y12.1597 
G01 X18.2817 Y10.7003 
G01 X18.3112 Y10.5519 
G01 X18.3691 Y10.4121 
G01 X18.4532 Y10.2862 
G01 X18.5602 Y10.1792 
G01 X18.6309 Y10.1320 
G01 X18.6309 Y5.8262 
G01 X18.6259 Y5.8245 
G01 X18.4709 Y5.7456 
G01 X18.3302 Y5.6434 
G01 X18.2072 Y5.5204 
G01 X18.1050 Y5.3797 
G01 X18.0261 Y5.2247 
G01 X17.9723 Y5.0593 
G01 X17.9451 Y4.8876 
G01 X17.9451 Y2.7324 
G01 X17.9723 Y2.5607 
G01 X18.0261 Y2.3953 
G01 X18.1050 Y2.2403 
G01 X18.2072 Y2.0996 
G00 Z2.5400 
G00 X20.7472 Y2.0996 
G01 Z-0.1778 F254.00 
G01 X20.8702 Y1.9766 F508.00 
G01 X21.0109 Y1.8744 
G01 X21.1659 Y1.7954 
G01 X21.3313 Y1.7417 
G01 X21.5030 Y1.7145 
G01 X21.6770 Y1.7145 
G01 X21.8487 Y1.7417 
G01 X22.0141 Y1.7954 
G01 X22.1691 Y1.8744 
G01 X22.3098 Y1.9766 
G01 X22.4328 Y2.0996 
G01 X22.5350 Y2.2403 
G01 X22.6139 Y2.3953 
G01 X22.6677 Y2.5607 
G01 X22.6949 Y2.7324 
G01 X22.6949 Y4.8876 
G01 X22.6677 Y5.0593 
G01 X22.6139 Y5.2247 
G01 X22.5350 Y5.3797 
G01 X22.4328 Y5.5204 
G01 X22.3098 Y5.6434 
G01 X22.1691 Y5.7456 
G01 X22.0141 Y5.8245 
G01 X22.0091 Y5.8262 
G01 X22.0091 Y10.1320 
G01 X22.0798 Y10.1792 
G01 X22.1868 Y10.2862 
G01 X22.2709 Y10.4121 
G01 X22.3288 Y10.5519 
G01 X22.3583 Y10.7003 
G01 X22.3583 Y12.1597 
G01 X22.3449 Y12.2272 
G01 X24.4654 Y14.3477 
G01 X24.5205 Y14.4432 
G01 X24.5491 Y14.5498 
G01 X24.5491 Y19.5114 
G01 X24.9386 Y19.9009 
G01 X27.0659 Y19.9009 
G01 X27.5612 Y19.4056 
G01 X28.3188 Y19.4056 
G01 X28.8544 Y19.9412 
G01 X28.8544 Y20.6988 
G01 X28.3188 Y21.2344 
G01 X27.5612 Y21.2344 
G01 X27.0659 Y20.7391 
G01 X24.7098 Y20.7391 
G01 X24.6032 Y20.7105 
G01 X24.5077 Y20.6554 
G01 X23.8727 Y20.0204 
G01 X23.7946 Y19.9423 
G01 X23.7395 Y19.8468 
G01 X23.7109 Y19.7402 
G01 X23.7109 Y14.7786 
G01 X21.7649 Y12.8326 
G01 X21.6657 Y12.8523 
G01 X21.5143 Y12.8523 
G01 X21.3659 Y12.8228 
G01 X21.2261 Y12.7649 
G01 X21.1002 Y12.6808 
G01 X20.9932 Y12.5738 
G01 X20.9091 Y12.4479 
G01 X20.8512 Y12.3081 
G01 X20.8217 Y12.1597 
G01 X20.8217 Y10.7003 
G01 X20.8512 Y10.5519 
G01 X20.9091 Y10.4121 
G01 X20.9932 Y10.2862 
G01 X21.1002 Y10.1792 
G01 X21.1709 Y10.1320 
G01 X21.1709 Y5.8262 
G01 X21.1659 Y5.8245 
G01 X21.0109 Y5.7456 
G01 X20.8702 Y5.6434 
G01 X20.7472 Y5.5204 
G01 X20.6450 Y5.3797 
G01 X20.5661 Y5.2247 
G01 X20.5123 Y5.0593 
G01 X20.4851 Y4.8876 
G01 X20.4851 Y2.7324 
G01 X20.5123 Y2.5607 
G01 X20.5661 Y2.3953 
G01 X20.6450 Y2.2403 
G01 X20.7472 Y2.0996 
G00 Z2.5400 
G00 X23.2872 Y2.0996 
G01 Z-0.1778 F254.00 
G01 X23.4102 Y1.9766 F508.00 
G01 X23.5509 Y1.8744 
G01 X23.7059 Y1.7954 
G01 X23.8713 Y1.7417 
G01 X24.0430 Y1.7145 
G01 X24.2170 Y1.7145 
G01 X24.3887 Y1.7417 
G01 X24.5541 Y1.7954 
G01 X24.7091 Y1.8744 
G01 X24.8498 Y1.9766 
G01 X24.9728 Y2.0996 
G01 X25.0750 Y2.2403 
G01 X25.1539 Y2.3953 
G01 X25.2077 Y2.5607 
G01 X25.2349 Y2.7324 
G01 X25.2349 Y4.8876 
G01 X25.2077 Y5.0593 
G01 X25.1539 Y5.2247 
G01 X25.0750 Y5.3797 
G01 X24.9728 Y5.5204 
G01 X24.8498 Y5.6434 
G01 X24.7091 Y5.7456 
G01 X24.5541 Y5.8245 
G01 X24.5491 Y5.8262 
G01 X24.5491 Y10.1320 
G01 X24.6198 Y10.1792 
G01 X24.7268 Y10.2862 
G01 X24.8109 Y10.4121 
G01 X24.8688 Y10.5519 
G01 X24.8983 Y10.7003 
G01 X24.8983 Y12.1597 
G01 X24.8688 Y12.3081 
G01 X24.8109 Y12.4479 
G01 X24.7268 Y12.5738 
G01 X24.6616 Y12.6389 
G01 X26.3704 Y14.3477 
G01 X26.4255 Y14.4432 
G01 X26.4541 Y14.5498 
G01 X26.4541 Y17.3609 
G01 X27.0659 Y17.3609 
G01 X27.5612 Y16.8656 
G01 X28.3188 Y16.8656 
G01 X28.8544 Y17.4012 
G01 X28.8544 Y18.1588 
G01 X28.3188 Y18.6944 
G01 X27.5612 Y18.6944 
G01 X27.0659 Y18.1991 
G01 X25.9798 Y18.1991 
G01 X25.8732 Y18.1705 
G01 X25.7777 Y18.1154 
G01 X25.6996 Y18.0373 
G01 X25.6445 Y17.9418 
G01 X25.6159 Y17.8352 
G01 X25.6159 Y14.7786 
G01 X23.8727 Y13.0354 
G01 X23.7946 Y12.9573 
G01 X23.7395 Y12.8618 
G01 X23.7109 Y12.7552 
G01 X23.7109 Y12.7280 
G01 X23.6402 Y12.6808 
G01 X23.5332 Y12.5738 
G01 X23.4491 Y12.4479 
G01 X23.3912 Y12.3081 
G01 X23.3617 Y12.1597 
G01 X23.3617 Y10.7003 
G01 X23.3912 Y10.5519 
G01 X23.4491 Y10.4121 
G01 X23.5332 Y10.2862 
G01 X23.6402 Y10.1792 
G01 X23.7109 Y10.1320 
G01 X23.7109 Y5.8262 
G01 X23.7059 Y5.8245 
G01 X23.5509 Y5.7456 
G01 X23.4102 Y5.6434 
G01 X23.2872 Y5.5204 
G01 X23.1850 Y5.3797 
G01 X23.1060 Y5.2247 
G01 X23.0523 Y5.0593 
G01 X23.0251 Y4.8876 
G01 X23.0251 Y2.7324 
G01 X23.0523 Y2.5607 
G01 X23.1060 Y2.3953 
G01 X23.1850 Y2.2403 
G01 X23.2872 Y2.0996 
G00 Z2.5400 
G00 X25.8272 Y2.0996 
G01 Z-0.1778 F254.00 
G01 X25.9502 Y1.9766 F508.00 
G01 X26.0909 Y1.8744 
G01 X26.2459 Y1.7954 
G01 X26.4113 Y1.7417 
G01 X26.5830 Y1.7145 
G01 X26.7570 Y1.7145 
G01 X26.9287 Y1.7417 
G01 X27.0941 Y1.7954 
G01 X27.2491 Y1.8744 
G01 X27.3898 Y1.9766 
G01 X27.5128 Y2.0996 
G01 X27.6150 Y2.2403 
G01 X27.6939 Y2.3953 
G01 X27.7477 Y2.5607 
G01 X27.7749 Y2.7324 
G01 X27.7749 Y4.8876 
G01 X27.7477 Y5.0593 
G01 X27.6939 Y5.2247 
G01 X27.6150 Y5.3797 
G01 X27.5128 Y5.5204 
G01 X27.3898 Y5.6434 
G01 X27.2491 Y5.7456 
G01 X27.0941 Y5.8245 
G01 X27.0891 Y5.8262 
G01 X27.0891 Y10.1320 
G01 X27.1598 Y10.1792 
G01 X27.2668 Y10.2862 
G01 X27.3509 Y10.4121 
G01 X27.4088 Y10.5519 
G01 X27.4383 Y10.7003 
G01 X27.4383 Y12.1597 
G01 X27.4088 Y12.3081 
G01 X27.3509 Y12.4479 
G01 X27.2668 Y12.5738 
G01 X27.2016 Y12.6389 
G01 X28.2754 Y13.7127 
G01 X28.3305 Y13.8082 
G01 X28.3591 Y13.9148 
G01 X28.3591 Y14.3659 
G01 X28.8544 Y14.8612 
G01 X28.8544 Y15.6188 
G01 X28.3188 Y16.1544 
G01 X27.5612 Y16.1544 
G01 X27.0256 Y15.6188 
G01 X27.0256 Y14.8612 
G01 X27.5209 Y14.3659 
G01 X27.5209 Y14.1436 
G01 X26.4127 Y13.0354 
G01 X26.3346 Y12.9573 
G01 X26.2795 Y12.8618 
G01 X26.2509 Y12.7552 
G01 X26.2509 Y12.7280 
G01 X26.1802 Y12.6808 
G01 X26.0732 Y12.5738 
G01 X25.9891 Y12.4479 
G01 X25.9312 Y12.3081 
G01 X25.9017 Y12.1597 
G01 X25.9017 Y10.7003 
G01 X25.9312 Y10.5519 
G01 X25.9891 Y10.4121 
G01 X26.0732 Y10.2862 
G01 X26.1802 Y10.1792 
G01 X26.2509 Y10.1320 
G01 X26.2509 Y5.8262 
G01 X26.2459 Y5.8245 
G01 X26.0909 Y5.7456 
G01 X25.9502 Y5.6434 
G01 X25.8272 Y5.5204 
G01 X25.7250 Y5.3797 
G01 X25.6460 Y5.2247 
G01 X25.5923 Y5.0593 
G01 X25.5651 Y4.8876 
G01 X25.5651 Y2.7324 
G01 X25.5923 Y2.5607 
G01 X25.6460 Y2.3953 
G01 X25.7250 Y2.2403 
G01 X25.8272 Y2.0996 
G00 Z2.5400 
G00 X30.9072 Y2.0996 
G01 Z-0.1778 F254.00 
G01 X31.0302 Y1.9766 F508.00 
G01 X31.1709 Y1.8744 
G01 X31.3259 Y1.7954 
G01 X31.4913 Y1.7417 
G01 X31.6630 Y1.7145 
G01 X31.8370 Y1.7145 
G01 X32.0087 Y1.7417 
G01 X32.1741 Y1.7954 
G01 X32.3291 Y1.8744 
G01 X32.4698 Y1.9766 
G01 X32.5928 Y2.0996 
G01 X32.6950 Y2.2403 
G01 X32.7739 Y2.3953 
G01 X32.8277 Y2.5607 
G01 X32.8549 Y2.7324 
G01 X32.8549 Y4.8876 
G01 X32.8277 Y5.0593 
G01 X32.7739 Y5.2247 
G01 X32.6950 Y5.3797 
G01 X32.5928 Y5.5204 
G01 X32.4698 Y5.6434 
G01 X32.3291 Y5.7456 
G01 X32.1741 Y5.8245 
G01 X32.1691 Y5.8262 
G01 X32.1691 Y6.4052 
G01 X32.1405 Y6.5118 
G01 X32.0854 Y6.6073 
G01 X32.0073 Y6.6854 
G01 X29.6291 Y9.0636 
G01 X29.6291 Y10.1320 
G01 X29.6998 Y10.1792 
G01 X29.8068 Y10.2862 
G01 X29.8909 Y10.4121 
G01 X29.9488 Y10.5519 
G01 X29.9783 Y10.7003 
G01 X29.9783 Y12.1597 
G01 X29.9488 Y12.3081 
G01 X29.8909 Y12.4479 
G01 X29.8068 Y12.5738 
G01 X29.6998 Y12.6808 
G01 X29.6291 Y12.7280 
G01 X29.6291 Y13.1614 
G01 X34.5473 Y18.0796 
G01 X34.6254 Y18.1577 
G01 X34.6805 Y18.2532 
G01 X34.7091 Y18.3598 
G01 X34.7091 Y21.9859 
G01 X35.2044 Y22.4812 
G01 X35.2044 Y23.2388 
G01 X34.6688 Y23.7744 
G01 X33.9683 Y23.7744 
G01 X32.6423 Y25.1004 
G01 X32.5468 Y25.1555 
G01 X32.4402 Y25.1841 
G01 X21.5348 Y25.1841 
G01 X21.4282 Y25.1555 
G01 X21.3327 Y25.1004 
G01 X20.0627 Y23.8304 
G01 X20.0067 Y23.7744 
G01 X19.9412 Y23.7744 
G01 X19.4459 Y23.2791 
G01 X16.1141 Y23.2791 
G01 X15.6188 Y23.7744 
G01 X14.8612 Y23.7744 
G01 X14.3256 Y23.2388 
G01 X14.3256 Y22.4812 
G01 X14.8209 Y21.9859 
G01 X14.8209 Y21.1941 
G01 X14.3256 Y20.6988 
G01 X14.3256 Y19.9412 
G01 X14.8209 Y19.4459 
G01 X14.8209 Y18.6541 
G01 X14.3256 Y18.1588 
G01 X14.3256 Y17.4012 
G01 X14.8209 Y16.9059 
G01 X14.8209 Y16.1141 
G01 X14.3256 Y15.6188 
G01 X14.3256 Y14.8612 
G01 X14.8612 Y14.3256 
G01 X15.6188 Y14.3256 
G01 X16.1544 Y14.8612 
G01 X16.1544 Y15.6188 
G01 X15.6591 Y16.1141 
G01 X15.6591 Y16.9059 
G01 X16.1544 Y17.4012 
G01 X16.1544 Y18.1588 
G01 X15.6591 Y18.6541 
G01 X15.6591 Y19.4459 
G01 X16.1544 Y19.9412 
G01 X16.1544 Y20.6988 
G01 X15.6591 Y21.1941 
G01 X15.6591 Y21.9859 
G01 X16.1141 Y22.4409 
G01 X19.4459 Y22.4409 
G01 X19.9009 Y21.9859 
G01 X19.9009 Y21.1941 
G01 X19.4056 Y20.6988 
G01 X19.4056 Y19.9412 
G01 X19.9009 Y19.4459 
G01 X19.9009 Y18.6541 
G01 X19.4056 Y18.1588 
G01 X19.4056 Y17.4012 
G01 X19.9009 Y16.9059 
G01 X19.9009 Y16.1141 
G01 X19.4056 Y15.6188 
G01 X19.4056 Y14.8612 
G01 X19.9412 Y14.3256 
G01 X20.6988 Y14.3256 
G01 X21.2344 Y14.8612 
G01 X21.2344 Y15.6188 
G01 X20.7391 Y16.1141 
G01 X20.7391 Y16.9059 
G01 X21.2344 Y17.4012 
G01 X21.2344 Y18.1588 
G01 X20.7391 Y18.6541 
G01 X20.7391 Y19.4459 
G01 X21.2344 Y19.9412 
G01 X21.2344 Y20.6988 
G01 X20.7391 Y21.1941 
G01 X20.7391 Y21.9859 
G01 X21.2344 Y22.4812 
G01 X21.2344 Y23.2388 
G01 X20.9454 Y23.5277 
G01 X21.7636 Y24.3459 
G01 X32.2114 Y24.3459 
G01 X33.3756 Y23.1817 
G01 X33.3756 Y22.4812 
G01 X33.8709 Y21.9859 
G01 X33.8709 Y18.5886 
G01 X28.8746 Y13.5923 
G01 X28.8195 Y13.4968 
G01 X28.7909 Y13.3902 
G01 X28.7909 Y12.7280 
G01 X28.7202 Y12.6808 
G01 X28.6132 Y12.5738 
G01 X28.5291 Y12.4479 
G01 X28.4712 Y12.3081 
G01 X28.4417 Y12.1597 
G01 X28.4417 Y10.7003 
G01 X28.4712 Y10.5519 
G01 X28.5291 Y10.4121 
G01 X28.6132 Y10.2862 
G01 X28.7202 Y10.1792 
G01 X28.7909 Y10.1320 
G01 X28.7909 Y8.8348 
G01 X28.8195 Y8.7282 
G01 X28.8746 Y8.6327 
G01 X31.3309 Y6.1764 
G01 X31.3309 Y5.8262 
G01 X31.3259 Y5.8245 
G01 X31.1709 Y5.7456 
G01 X31.0302 Y5.6434 
G01 X30.9072 Y5.5204 
G01 X30.8050 Y5.3797 
G01 X30.7261 Y5.2247 
G01 X30.6723 Y5.0593 
G01 X30.6451 Y4.8876 
G01 X30.6451 Y2.7324 
G01 X30.6723 Y2.5607 
G01 X30.7261 Y2.3953 
G01 X30.8050 Y2.2403 
G01 X30.9072 Y2.0996 
G00 Z2.5400 
G00 X33.4472 Y2.0996 
G01 Z-0.1778 F254.00 
G01 X33.5702 Y1.9766 F508.00 
G01 X33.7109 Y1.8744 
G01 X33.8659 Y1.7954 
G01 X34.0313 Y1.7417 
G01 X34.2030 Y1.7145 
G01 X34.3770 Y1.7145 
G01 X34.5487 Y1.7417 
G01 X34.7141 Y1.7954 
G01 X34.8691 Y1.8744 
G01 X35.0098 Y1.9766 
G01 X35.1328 Y2.0996 
G01 X35.2350 Y2.2403 
G01 X35.3139 Y2.3953 
G01 X35.3677 Y2.5607 
G01 X35.3949 Y2.7324 
G01 X35.3949 Y4.8876 
G01 X35.3677 Y5.0593 
G01 X35.3139 Y5.2247 
G01 X35.2350 Y5.3797 
G01 X35.1328 Y5.5204 
G01 X35.0098 Y5.6434 
G01 X34.8691 Y5.7456 
G01 X34.7141 Y5.8245 
G01 X34.7091 Y5.8262 
G01 X34.7091 Y10.1320 
G01 X34.7798 Y10.1792 
G01 X34.8868 Y10.2862 
G01 X34.9709 Y10.4121 
G01 X35.0288 Y10.5519 
G01 X35.0583 Y10.7003 
G01 X35.0583 Y12.1597 
G01 X35.0288 Y12.3081 
G01 X34.9709 Y12.4479 
G01 X34.8868 Y12.5738 
G01 X34.7798 Y12.6808 
G01 X34.6539 Y12.7649 
G01 X34.5141 Y12.8228 
G01 X34.3657 Y12.8523 
G01 X34.2143 Y12.8523 
G01 X34.0659 Y12.8228 
G01 X33.9261 Y12.7649 
G01 X33.8002 Y12.6808 
G01 X33.6932 Y12.5738 
G01 X33.6091 Y12.4479 
G01 X33.5512 Y12.3081 
G01 X33.5217 Y12.1597 
G01 X33.5217 Y10.7003 
G01 X33.5512 Y10.5519 
G01 X33.6091 Y10.4121 
G01 X33.6932 Y10.2862 
G01 X33.8002 Y10.1792 
G01 X33.8709 Y10.1320 
G01 X33.8709 Y5.8262 
G01 X33.8659 Y5.8245 
G01 X33.7109 Y5.7456 
G01 X33.5702 Y5.6434 
G01 X33.4472 Y5.5204 
G01 X33.3450 Y5.3797 
G01 X33.2660 Y5.2247 
G01 X33.2123 Y5.0593 
G01 X33.1851 Y4.8876 
G01 X33.1851 Y2.7324 
G01 X33.2123 Y2.5607 
G01 X33.2660 Y2.3953 
G01 X33.3450 Y2.2403 
G01 X33.4472 Y2.0996 
G00 Z2.5400 
G00 X32.2398 Y10.1792 
G01 Z-0.1778 F254.00 
G01 X32.3468 Y10.2862 F508.00 
G01 X32.4309 Y10.4121 
G01 X32.4888 Y10.5519 
G01 X32.5183 Y10.7003 
G01 X32.5183 Y12.1597 
G01 X32.4888 Y12.3081 
G01 X32.4309 Y12.4479 
G01 X32.3468 Y12.5738 
G01 X32.2816 Y12.6389 
G01 X33.9683 Y14.3256 
G01 X34.6688 Y14.3256 
G01 X35.2044 Y14.8612 
G01 X35.2044 Y15.6188 
G01 X34.6688 Y16.1544 
G01 X33.9112 Y16.1544 
G01 X33.3756 Y15.6188 
G01 X33.3756 Y14.9183 
G01 X31.4927 Y13.0354 
G01 X31.4146 Y12.9573 
G01 X31.3595 Y12.8618 
G01 X31.3309 Y12.7552 
G01 X31.3309 Y12.7280 
G01 X31.2602 Y12.6808 
G01 X31.1532 Y12.5738 
G01 X31.0691 Y12.4479 
G01 X31.0112 Y12.3081 
G01 X30.9817 Y12.1597 
G01 X30.9817 Y10.7003 
G01 X31.0112 Y10.5519 
G01 X31.0691 Y10.4121 
G01 X31.1532 Y10.2862 
G01 X31.2602 Y10.1792 
G01 X31.3861 Y10.0951 
G01 X31.5259 Y10.0372 
G01 X31.6743 Y10.0077 
G01 X31.8257 Y10.0077 
G01 X31.9741 Y10.0372 
G01 X32.1139 Y10.0951 
G01 X32.2398 Y10.1792 
G00 Z2.5400 
G00 X36.2332 Y10.2862 
G01 Z-0.1778 F254.00 
G01 X36.3402 Y10.1792 F508.00 
G01 X36.4661 Y10.0951 
G01 X36.6059 Y10.0372 
G01 X36.7543 Y10.0077 
G01 X36.9057 Y10.0077 
G01 X37.0541 Y10.0372 
G01 X37.1939 Y10.0951 
G01 X37.3198 Y10.1792 
G01 X37.4268 Y10.2862 
G01 X37.5109 Y10.4121 
G01 X37.5688 Y10.5519 
G01 X37.5983 Y10.7003 
G01 X37.5983 Y12.1597 
G01 X37.5688 Y12.3081 
G01 X37.5109 Y12.4479 
G01 X37.4268 Y12.5738 
G01 X37.3198 Y12.6808 
G01 X37.1939 Y12.7649 
G01 X37.0541 Y12.8228 
G01 X36.9057 Y12.8523 
G01 X36.7543 Y12.8523 
G01 X36.6059 Y12.8228 
G01 X36.4661 Y12.7649 
G01 X36.3402 Y12.6808 
G01 X36.2332 Y12.5738 
G01 X36.1491 Y12.4479 
G01 X36.0912 Y12.3081 
G01 X36.0617 Y12.1597 
G01 X36.0617 Y10.7003 
G01 X36.0912 Y10.5519 
G01 X36.1491 Y10.4121 
G01 X36.2332 Y10.2862 
G00 Z2.5400 
G00 X36.2332 Y25.5262 
G01 Z-0.1778 F254.00 
G01 X36.3402 Y25.4192 F508.00 
G01 X36.4661 Y25.3351 
G01 X36.6059 Y25.2772 
G01 X36.7543 Y25.2477 
G01 X36.9057 Y25.2477 
G01 X37.0541 Y25.2772 
G01 X37.1939 Y25.3351 
G01 X37.3198 Y25.4192 
G01 X37.4268 Y25.5262 
G01 X37.5109 Y25.6521 
G01 X37.5688 Y25.7919 
G01 X37.5983 Y25.9403 
G01 X37.5983 Y27.3997 
G01 X37.5688 Y27.5481 
G01 X37.5109 Y27.6879 
G01 X37.4268 Y27.8138 
G01 X37.3198 Y27.9208 
G01 X37.1939 Y28.0049 
G01 X37.0541 Y28.0628 
G01 X36.9057 Y28.0923 
G01 X36.7543 Y28.0923 
G01 X36.6059 Y28.0628 
G01 X36.4661 Y28.0049 
G01 X36.3402 Y27.9208 
G01 X36.2332 Y27.8138 
G01 X36.1491 Y27.6879 
G01 X36.0912 Y27.5481 
G01 X36.0617 Y27.3997 
G01 X36.0617 Y25.9403 
G01 X36.0912 Y25.7919 
G01 X36.1491 Y25.6521 
G01 X36.2332 Y25.5262 
G00 Z2.5400 
G00 X34.8868 Y25.5262 
G01 Z-0.1778 F254.00 
G01 X34.9709 Y25.6521 F508.00 
G01 X35.0288 Y25.7919 
G01 X35.0583 Y25.9403 
G01 X35.0583 Y27.3997 
G01 X35.0288 Y27.5481 
G01 X34.9709 Y27.6879 
G01 X34.8868 Y27.8138 
G01 X34.7798 Y27.9208 
G01 X34.6539 Y28.0049 
G01 X34.5141 Y28.0628 
G01 X34.3657 Y28.0923 
G01 X34.2143 Y28.0923 
G01 X34.0659 Y28.0628 
G01 X33.9261 Y28.0049 
G01 X33.8002 Y27.9208 
G01 X33.6932 Y27.8138 
G01 X33.6091 Y27.6879 
G01 X33.5512 Y27.5481 
G01 X33.5217 Y27.3997 
G01 X33.5217 Y25.9403 
G01 X33.5512 Y25.7919 
G01 X33.6091 Y25.6521 
G01 X33.6932 Y25.5262 
G01 X33.8002 Y25.4192 
G01 X33.9261 Y25.3351 
G01 X34.0659 Y25.2772 
G01 X34.2143 Y25.2477 
G01 X34.3657 Y25.2477 
G01 X34.5141 Y25.2772 
G01 X34.6539 Y25.3351 
G01 X34.7798 Y25.4192 
G01 X34.8868 Y25.5262 
G00 Z2.5400 
G00 X32.3468 Y25.5262 
G01 Z-0.1778 F254.00 
G01 X32.4309 Y25.6521 F508.00 
G01 X32.4888 Y25.7919 
G01 X32.5183 Y25.9403 
G01 X32.5183 Y27.3997 
G01 X32.4888 Y27.5481 
G01 X32.4309 Y27.6879 
G01 X32.3468 Y27.8138 
G01 X32.2398 Y27.9208 
G01 X32.1139 Y28.0049 
G01 X31.9741 Y28.0628 
G01 X31.8257 Y28.0923 
G01 X31.6743 Y28.0923 
G01 X31.5259 Y28.0628 
G01 X31.3861 Y28.0049 
G01 X31.2602 Y27.9208 
G01 X31.1532 Y27.8138 
G01 X31.0691 Y27.6879 
G01 X31.0112 Y27.5481 
G01 X30.9817 Y27.3997 
G01 X30.9817 Y25.9403 
G01 X31.0112 Y25.7919 
G01 X31.0691 Y25.6521 
G01 X31.1532 Y25.5262 
G01 X31.2602 Y25.4192 
G01 X31.3861 Y25.3351 
G01 X31.5259 Y25.2772 
G01 X31.6743 Y25.2477 
G01 X31.8257 Y25.2477 
G01 X31.9741 Y25.2772 
G01 X32.1139 Y25.3351 
G01 X32.2398 Y25.4192 
G01 X32.3468 Y25.5262 
G00 Z2.5400 
G00 X29.8068 Y25.5262 
G01 Z-0.1778 F254.00 
G01 X29.8909 Y25.6521 F508.00 
G01 X29.9488 Y25.7919 
G01 X29.9783 Y25.9403 
G01 X29.9783 Y27.3997 
G01 X29.9488 Y27.5481 
G01 X29.8909 Y27.6879 
G01 X29.8068 Y27.8138 
G01 X29.6998 Y27.9208 
G01 X29.5739 Y28.0049 
G01 X29.4341 Y28.0628 
G01 X29.2857 Y28.0923 
G01 X29.1343 Y28.0923 
G01 X28.9859 Y28.0628 
G01 X28.8461 Y28.0049 
G01 X28.7202 Y27.9208 
G01 X28.6132 Y27.8138 
G01 X28.5291 Y27.6879 
G01 X28.4712 Y27.5481 
G01 X28.4417 Y27.3997 
G01 X28.4417 Y25.9403 
G01 X28.4712 Y25.7919 
G01 X28.5291 Y25.6521 
G01 X28.6132 Y25.5262 
G01 X28.7202 Y25.4192 
G01 X28.8461 Y25.3351 
G01 X28.9859 Y25.2772 
G01 X29.1343 Y25.2477 
G01 X29.2857 Y25.2477 
G01 X29.4341 Y25.2772 
G01 X29.5739 Y25.3351 
G01 X29.6998 Y25.4192 
G01 X29.8068 Y25.5262 
G00 Z2.5400 
G00 X27.2668 Y25.5262 
G01 Z-0.1778 F254.00 
G01 X27.3509 Y25.6521 F508.00 
G01 X27.4088 Y25.7919 
G01 X27.4383 Y25.9403 
G01 X27.4383 Y27.3997 
G01 X27.4088 Y27.5481 
G01 X27.3509 Y27.6879 
G01 X27.2668 Y27.8138 
G01 X27.2016 Y27.8789 
G01 X31.5371 Y32.2144 
G01 X31.6630 Y32.1945 
G01 X31.8370 Y32.1945 
G01 X32.0087 Y32.2217 
G01 X32.1741 Y32.2754 
G01 X32.3291 Y32.3544 
G01 X32.4698 Y32.4566 
G01 X32.5928 Y32.5796 
G01 X32.6950 Y32.7203 
G01 X32.7739 Y32.8753 
G01 X32.8277 Y33.0407 
G01 X32.8549 Y33.2124 
G01 X32.8549 Y35.3676 
G01 X32.8277 Y35.5393 
G01 X32.7739 Y35.7047 
G01 X32.6950 Y35.8597 
G01 X32.5928 Y36.0004 
G01 X32.4698 Y36.1234 
G01 X32.3291 Y36.2256 
G01 X32.1741 Y36.3045 
G01 X32.0087 Y36.3583 
G01 X31.8370 Y36.3855 
G01 X31.6630 Y36.3855 
G01 X31.4913 Y36.3583 
G01 X31.3259 Y36.3045 
G01 X31.1709 Y36.2256 
G01 X31.0302 Y36.1234 
G01 X30.9072 Y36.0004 
G01 X30.8050 Y35.8597 
G01 X30.7261 Y35.7047 
G01 X30.6723 Y35.5393 
G01 X30.6451 Y35.3676 
G01 X30.6451 Y33.2124 
G01 X30.6723 Y33.0407 
G01 X30.7261 Y32.8753 
G01 X30.8050 Y32.7203 
G01 X30.8271 Y32.6898 
G01 X26.3346 Y28.1973 
G01 X26.2795 Y28.1018 
G01 X26.2509 Y27.9952 
G01 X26.2509 Y27.9680 
G01 X26.1802 Y27.9208 
G01 X26.0732 Y27.8138 
G01 X25.9891 Y27.6879 
G01 X25.9312 Y27.5481 
G01 X25.9017 Y27.3997 
G01 X25.9017 Y25.9403 
G01 X25.9312 Y25.7919 
G01 X25.9891 Y25.6521 
G01 X26.0732 Y25.5262 
G01 X26.1802 Y25.4192 
G01 X26.3061 Y25.3351 
G01 X26.4459 Y25.2772 
G01 X26.5943 Y25.2477 
G01 X26.7457 Y25.2477 
G01 X26.8941 Y25.2772 
G01 X27.0339 Y25.3351 
G01 X27.1598 Y25.4192 
G01 X27.2668 Y25.5262 
G00 Z2.5400 
G00 X24.7268 Y25.5262 
G01 Z-0.1778 F254.00 
G01 X24.8109 Y25.6521 F508.00 
G01 X24.8688 Y25.7919 
G01 X24.8983 Y25.9403 
G01 X24.8983 Y27.3997 
G01 X24.8688 Y27.5481 
G01 X24.8109 Y27.6879 
G01 X24.7268 Y27.8138 
G01 X24.6616 Y27.8789 
G01 X28.9971 Y32.2144 
G01 X29.1230 Y32.1945 
G01 X29.2970 Y32.1945 
G01 X29.4687 Y32.2217 
G01 X29.6341 Y32.2754 
G01 X29.7891 Y32.3544 
G01 X29.9298 Y32.4566 
G01 X30.0528 Y32.5796 
G01 X30.1550 Y32.7203 
G01 X30.2339 Y32.8753 
G01 X30.2877 Y33.0407 
G01 X30.3149 Y33.2124 
G01 X30.3149 Y35.3676 
G01 X30.2877 Y35.5393 
G01 X30.2339 Y35.7047 
G01 X30.1550 Y35.8597 
G01 X30.0528 Y36.0004 
G01 X29.9298 Y36.1234 
G01 X29.7891 Y36.2256 
G01 X29.6341 Y36.3045 
G01 X29.4687 Y36.3583 
G01 X29.2970 Y36.3855 
G01 X29.1230 Y36.3855 
G01 X28.9513 Y36.3583 
G01 X28.7859 Y36.3045 
G01 X28.6309 Y36.2256 
G01 X28.4902 Y36.1234 
G01 X28.3672 Y36.0004 
G01 X28.2650 Y35.8597 
G01 X28.1861 Y35.7047 
G01 X28.1323 Y35.5393 
G01 X28.1051 Y35.3676 
G01 X28.1051 Y33.2124 
G01 X28.1323 Y33.0407 
G01 X28.1861 Y32.8753 
G01 X28.2650 Y32.7203 
G01 X28.2871 Y32.6898 
G01 X23.7946 Y28.1973 
G01 X23.7395 Y28.1018 
G01 X23.7109 Y27.9952 
G01 X23.7109 Y27.9680 
G01 X23.6402 Y27.9208 
G01 X23.5332 Y27.8138 
G01 X23.4491 Y27.6879 
G01 X23.3912 Y27.5481 
G01 X23.3617 Y27.3997 
G01 X23.3617 Y25.9403 
G01 X23.3912 Y25.7919 
G01 X23.4491 Y25.6521 
G01 X23.5332 Y25.5262 
G01 X23.6402 Y25.4192 
G01 X23.7661 Y25.3351 
G01 X23.9059 Y25.2772 
G01 X24.0543 Y25.2477 
G01 X24.2057 Y25.2477 
G01 X24.3541 Y25.2772 
G01 X24.4939 Y25.3351 
G01 X24.6198 Y25.4192 
G01 X24.7268 Y25.5262 
G00 Z2.5400 
G00 X22.1868 Y25.5262 
G01 Z-0.1778 F254.00 
G01 X22.2709 Y25.6521 F508.00 
G01 X22.3288 Y25.7919 
G01 X22.3583 Y25.9403 
G01 X22.3583 Y27.3997 
G01 X22.3288 Y27.5481 
G01 X22.2709 Y27.6879 
G01 X22.1868 Y27.8138 
G01 X22.1216 Y27.8789 
G01 X26.4571 Y32.2144 
G01 X26.5830 Y32.1945 
G01 X26.7570 Y32.1945 
G01 X26.9287 Y32.2217 
G01 X27.0941 Y32.2754 
G01 X27.2491 Y32.3544 
G01 X27.3898 Y32.4566 
G01 X27.5128 Y32.5796 
G01 X27.6150 Y32.7203 
G01 X27.6939 Y32.8753 
G01 X27.7477 Y33.0407 
G01 X27.7749 Y33.2124 
G01 X27.7749 Y35.3676 
G01 X27.7477 Y35.5393 
G01 X27.6939 Y35.7047 
G01 X27.6150 Y35.8597 
G01 X27.5128 Y36.0004 
G01 X27.3898 Y36.1234 
G01 X27.2491 Y36.2256 
G01 X27.0941 Y36.3045 
G01 X26.9287 Y36.3583 
G01 X26.7570 Y36.3855 
G01 X26.5830 Y36.3855 
G01 X26.4113 Y36.3583 
G01 X26.2459 Y36.3045 
G01 X26.0909 Y36.2256 
G01 X25.9502 Y36.1234 
G01 X25.8272 Y36.0004 
G01 X25.7250 Y35.8597 
G01 X25.6460 Y35.7047 
G01 X25.5923 Y35.5393 
G01 X25.5651 Y35.3676 
G01 X25.5651 Y33.2124 
G01 X25.5923 Y33.0407 
G01 X25.6460 Y32.8753 
G01 X25.7250 Y32.7203 
G01 X25.7471 Y32.6898 
G01 X21.3327 Y28.2754 
G01 X21.2546 Y28.1973 
G01 X21.1995 Y28.1018 
G01 X21.1709 Y27.9952 
G01 X21.1709 Y27.9680 
G01 X21.1002 Y27.9208 
G01 X20.9932 Y27.8138 
G01 X20.9091 Y27.6879 
G01 X20.8512 Y27.5481 
G01 X20.8217 Y27.3997 
G01 X20.8217 Y25.9403 
G01 X20.8512 Y25.7919 
G01 X20.9091 Y25.6521 
G01 X20.9932 Y25.5262 
G01 X21.1002 Y25.4192 
G01 X21.2261 Y25.3351 
G01 X21.3659 Y25.2772 
G01 X21.5143 Y25.2477 
G01 X21.6657 Y25.2477 
G01 X21.8141 Y25.2772 
G01 X21.9539 Y25.3351 
G01 X22.0798 Y25.4192 
G01 X22.1868 Y25.5262 
G00 Z2.5400 
G00 X19.6468 Y25.5262 
G01 Z-0.1778 F254.00 
G01 X19.7309 Y25.6521 F508.00 
G01 X19.7888 Y25.7919 
G01 X19.8183 Y25.9403 
G01 X19.8183 Y27.3997 
G01 X19.7888 Y27.5481 
G01 X19.7309 Y27.6879 
G01 X19.6468 Y27.8138 
G01 X19.5816 Y27.8789 
G01 X23.9171 Y32.2144 
G01 X24.0430 Y32.1945 
G01 X24.2170 Y32.1945 
G01 X24.3887 Y32.2217 
G01 X24.5541 Y32.2754 
G01 X24.7091 Y32.3544 
G01 X24.8498 Y32.4566 
G01 X24.9728 Y32.5796 
G01 X25.0750 Y32.7203 
G01 X25.1539 Y32.8753 
G01 X25.2077 Y33.0407 
G01 X25.2349 Y33.2124 
G01 X25.2349 Y35.3676 
G01 X25.2077 Y35.5393 
G01 X25.1539 Y35.7047 
G01 X25.0750 Y35.8597 
G01 X24.9728 Y36.0004 
G01 X24.8498 Y36.1234 
G01 X24.7091 Y36.2256 
G01 X24.5541 Y36.3045 
G01 X24.3887 Y36.3583 
G01 X24.2170 Y36.3855 
G01 X24.0430 Y36.3855 
G01 X23.8713 Y36.3583 
G01 X23.7059 Y36.3045 
G01 X23.5509 Y36.2256 
G01 X23.4102 Y36.1234 
G01 X23.2872 Y36.0004 
G01 X23.1850 Y35.8597 
G01 X23.1060 Y35.7047 
G01 X23.0523 Y35.5393 
G01 X23.0251 Y35.3676 
G01 X23.0251 Y33.2124 
G01 X23.0523 Y33.0407 
G01 X23.1060 Y32.8753 
G01 X23.1850 Y32.7203 
G01 X23.2071 Y32.6898 
G01 X18.7146 Y28.1973 
G01 X18.6595 Y28.1018 
G01 X18.6309 Y27.9952 
G01 X18.6309 Y27.9680 
G01 X18.5602 Y27.9208 
G01 X18.4532 Y27.8138 
G01 X18.3691 Y27.6879 
G01 X18.3112 Y27.5481 
G01 X18.2817 Y27.3997 
G01 X18.2817 Y25.9403 
G01 X18.3112 Y25.7919 
G01 X18.3691 Y25.6521 
G01 X18.4532 Y25.5262 
G01 X18.5602 Y25.4192 
G01 X18.6861 Y25.3351 
G01 X18.8259 Y25.2772 
G01 X18.9743 Y25.2477 
G01 X19.1257 Y25.2477 
G01 X19.2741 Y25.2772 
G01 X19.4139 Y25.3351 
G01 X19.5398 Y25.4192 
G01 X19.6468 Y25.5262 
G00 Z2.5400 
G00 X17.1068 Y25.5262 
G01 Z-0.1778 F254.00 
G01 X17.1909 Y25.6521 F508.00 
G01 X17.2488 Y25.7919 
G01 X17.2783 Y25.9403 
G01 X17.2783 Y27.3997 
G01 X17.2488 Y27.5481 
G01 X17.1909 Y27.6879 
G01 X17.1068 Y27.8138 
G01 X17.0416 Y27.8789 
G01 X21.3771 Y32.2144 
G01 X21.5030 Y32.1945 
G01 X21.6770 Y32.1945 
G01 X21.8487 Y32.2217 
G01 X22.0141 Y32.2754 
G01 X22.1691 Y32.3544 
G01 X22.3098 Y32.4566 
G01 X22.4328 Y32.5796 
G01 X22.5350 Y32.7203 
G01 X22.6139 Y32.8753 
G01 X22.6677 Y33.0407 
G01 X22.6949 Y33.2124 
G01 X22.6949 Y35.3676 
G01 X22.6677 Y35.5393 
G01 X22.6139 Y35.7047 
G01 X22.5350 Y35.8597 
G01 X22.4328 Y36.0004 
G01 X22.3098 Y36.1234 
G01 X22.1691 Y36.2256 
G01 X22.0141 Y36.3045 
G01 X21.8487 Y36.3583 
G01 X21.6770 Y36.3855 
G01 X21.5030 Y36.3855 
G01 X21.3313 Y36.3583 
G01 X21.1659 Y36.3045 
G01 X21.0109 Y36.2256 
G01 X20.8702 Y36.1234 
G01 X20.7472 Y36.0004 
G01 X20.6450 Y35.8597 
G01 X20.5661 Y35.7047 
G01 X20.5123 Y35.5393 
G01 X20.4851 Y35.3676 
G01 X20.4851 Y33.2124 
G01 X20.5123 Y33.0407 
G01 X20.5661 Y32.8753 
G01 X20.6450 Y32.7203 
G01 X20.6671 Y32.6898 
G01 X16.1746 Y28.1973 
G01 X16.1195 Y28.1018 
G01 X16.0909 Y27.9952 
G01 X16.0909 Y27.9680 
G01 X16.0202 Y27.9208 
G01 X15.9132 Y27.8138 
G01 X15.8291 Y27.6879 
G01 X15.7712 Y27.5481 
G01 X15.7417 Y27.3997 
G01 X15.7417 Y25.9403 
G01 X15.7712 Y25.7919 
G01 X15.8291 Y25.6521 
G01 X15.9132 Y25.5262 
G01 X16.0202 Y25.4192 
G01 X16.1461 Y25.3351 
G01 X16.2859 Y25.2772 
G01 X16.4343 Y25.2477 
G01 X16.5857 Y25.2477 
G01 X16.7341 Y25.2772 
G01 X16.8739 Y25.3351 
G01 X16.9998 Y25.4192 
G01 X17.1068 Y25.5262 
G00 Z2.5400 
G00 X14.5668 Y25.5262 
G01 Z-0.1778 F254.00 
G01 X14.6509 Y25.6521 F508.00 
G01 X14.7088 Y25.7919 
G01 X14.7383 Y25.9403 
G01 X14.7383 Y27.3997 
G01 X14.7088 Y27.5481 
G01 X14.6509 Y27.6879 
G01 X14.5668 Y27.8138 
G01 X14.5016 Y27.8789 
G01 X18.8371 Y32.2144 
G01 X18.9630 Y32.1945 
G01 X19.1370 Y32.1945 
G01 X19.3087 Y32.2217 
G01 X19.4741 Y32.2754 
G01 X19.6291 Y32.3544 
G01 X19.7698 Y32.4566 
G01 X19.8928 Y32.5796 
G01 X19.9950 Y32.7203 
G01 X20.0739 Y32.8753 
G01 X20.1277 Y33.0407 
G01 X20.1549 Y33.2124 
G01 X20.1549 Y35.3676 
G01 X20.1277 Y35.5393 
G01 X20.0739 Y35.7047 
G01 X19.9950 Y35.8597 
G01 X19.8928 Y36.0004 
G01 X19.7698 Y36.1234 
G01 X19.6291 Y36.2256 
G01 X19.4741 Y36.3045 
G01 X19.3087 Y36.3583 
G01 X19.1370 Y36.3855 
G01 X18.9630 Y36.3855 
G01 X18.7913 Y36.3583 
G01 X18.6259 Y36.3045 
G01 X18.4709 Y36.2256 
G01 X18.3302 Y36.1234 
G01 X18.2072 Y36.0004 
G01 X18.1050 Y35.8597 
G01 X18.0261 Y35.7047 
G01 X17.9723 Y35.5393 
G01 X17.9451 Y35.3676 
G01 X17.9451 Y33.2124 
G01 X17.9723 Y33.0407 
G01 X18.0261 Y32.8753 
G01 X18.1050 Y32.7203 
G01 X18.1271 Y32.6898 
G01 X13.6346 Y28.1973 
G01 X13.5795 Y28.1018 
G01 X13.5509 Y27.9952 
G01 X13.5509 Y27.9680 
G01 X13.4802 Y27.9208 
G01 X13.3732 Y27.8138 
G01 X13.2891 Y27.6879 
G01 X13.2312 Y27.5481 
G01 X13.2017 Y27.3997 
G01 X13.2017 Y25.9403 
G01 X13.2312 Y25.7919 
G01 X13.2891 Y25.6521 
G01 X13.3732 Y25.5262 
G01 X13.4802 Y25.4192 
G01 X13.6061 Y25.3351 
G01 X13.7459 Y25.2772 
G01 X13.8943 Y25.2477 
G01 X14.0457 Y25.2477 
G01 X14.1941 Y25.2772 
G01 X14.3339 Y25.3351 
G01 X14.4598 Y25.4192 
G01 X14.5668 Y25.5262 
G00 Z2.5400 
G00 X12.0268 Y25.5262 
G01 Z-0.1778 F254.00 
G01 X12.1109 Y25.6521 F508.00 
G01 X12.1688 Y25.7919 
G01 X12.1983 Y25.9403 
G01 X12.1983 Y27.3997 
G01 X12.1688 Y27.5481 
G01 X12.1109 Y27.6879 
G01 X12.0268 Y27.8138 
G01 X11.9616 Y27.8789 
G01 X16.2971 Y32.2144 
G01 X16.4230 Y32.1945 
G01 X16.5970 Y32.1945 
G01 X16.7687 Y32.2217 
G01 X16.9341 Y32.2754 
G01 X17.0891 Y32.3544 
G01 X17.2298 Y32.4566 
G01 X17.3528 Y32.5796 
G01 X17.4550 Y32.7203 
G01 X17.5339 Y32.8753 
G01 X17.5877 Y33.0407 
G01 X17.6149 Y33.2124 
G01 X17.6149 Y35.3676 
G01 X17.5877 Y35.5393 
G01 X17.5339 Y35.7047 
G01 X17.4550 Y35.8597 
G01 X17.3528 Y36.0004 
G01 X17.2298 Y36.1234 
G01 X17.0891 Y36.2256 
G01 X16.9341 Y36.3045 
G01 X16.7687 Y36.3583 
G01 X16.5970 Y36.3855 
G01 X16.4230 Y36.3855 
G01 X16.2513 Y36.3583 
G01 X16.0859 Y36.3045 
G01 X15.9309 Y36.2256 
G01 X15.7902 Y36.1234 
G01 X15.6672 Y36.0004 
G01 X15.5650 Y35.8597 
G01 X15.4861 Y35.7047 
G01 X15.4323 Y35.5393 
G01 X15.4051 Y35.3676 
G01 X15.4051 Y33.2124 
G01 X15.4323 Y33.0407 
G01 X15.4861 Y32.8753 
G01 X15.5650 Y32.7203 
G01 X15.5871 Y32.6898 
G01 X11.0946 Y28.1973 
G01 X11.0395 Y28.1018 
G01 X11.0109 Y27.9952 
G01 X11.0109 Y27.9680 
G01 X10.9402 Y27.9208 
G01 X10.8332 Y27.8138 
G01 X10.7491 Y27.6879 
G01 X10.6912 Y27.5481 
G01 X10.6617 Y27.3997 
G01 X10.6617 Y25.9403 
G01 X10.6912 Y25.7919 
G01 X10.7491 Y25.6521 
G01 X10.8332 Y25.5262 
G01 X10.9402 Y25.4192 
G01 X11.0661 Y25.3351 
G01 X11.2059 Y25.2772 
G01 X11.3543 Y25.2477 
G01 X11.5057 Y25.2477 
G01 X11.6541 Y25.2772 
G01 X11.7939 Y25.3351 
G01 X11.9198 Y25.4192 
G01 X12.0268 Y25.5262 
G00 Z2.5400 
G00 X9.4868 Y25.5262 
G01 Z-0.1778 F254.00 
G01 X9.5709 Y25.6521 F508.00 
G01 X9.6288 Y25.7919 
G01 X9.6583 Y25.9403 
G01 X9.6583 Y27.3997 
G01 X9.6288 Y27.5481 
G01 X9.5709 Y27.6879 
G01 X9.4868 Y27.8138 
G01 X9.4216 Y27.8789 
G01 X13.7571 Y32.2144 
G01 X13.8830 Y32.1945 
G01 X14.0570 Y32.1945 
G01 X14.2287 Y32.2217 
G01 X14.3941 Y32.2754 
G01 X14.5491 Y32.3544 
G01 X14.6898 Y32.4566 
G01 X14.8128 Y32.5796 
G01 X14.9150 Y32.7203 
G01 X14.9939 Y32.8753 
G01 X15.0477 Y33.0407 
G01 X15.0749 Y33.2124 
G01 X15.0749 Y35.3676 
G01 X15.0477 Y35.5393 
G01 X14.9939 Y35.7047 
G01 X14.9150 Y35.8597 
G01 X14.8128 Y36.0004 
G01 X14.6898 Y36.1234 
G01 X14.5491 Y36.2256 
G01 X14.3941 Y36.3045 
G01 X14.2287 Y36.3583 
G01 X14.0570 Y36.3855 
G01 X13.8830 Y36.3855 
G01 X13.7113 Y36.3583 
G01 X13.5459 Y36.3045 
G01 X13.3909 Y36.2256 
G01 X13.2502 Y36.1234 
G01 X13.1272 Y36.0004 
G01 X13.0250 Y35.8597 
G01 X12.9460 Y35.7047 
G01 X12.8923 Y35.5393 
G01 X12.8651 Y35.3676 
G01 X12.8651 Y33.2124 
G01 X12.8923 Y33.0407 
G01 X12.9460 Y32.8753 
G01 X13.0250 Y32.7203 
G01 X13.0471 Y32.6898 
G01 X8.5546 Y28.1973 
G01 X8.4995 Y28.1018 
G01 X8.4709 Y27.9952 
G01 X8.4709 Y27.9680 
G01 X8.4002 Y27.9208 
G01 X8.2932 Y27.8138 
G01 X8.2091 Y27.6879 
G01 X8.1512 Y27.5481 
G01 X8.1217 Y27.3997 
G01 X8.1217 Y25.9403 
G01 X8.1512 Y25.7919 
G01 X8.2091 Y25.6521 
G01 X8.2932 Y25.5262 
G01 X8.4002 Y25.4192 
G01 X8.5261 Y25.3351 
G01 X8.6659 Y25.2772 
G01 X8.8143 Y25.2477 
G01 X8.9657 Y25.2477 
G01 X9.1141 Y25.2772 
G01 X9.2539 Y25.3351 
G01 X9.3798 Y25.4192 
G01 X9.4868 Y25.5262 
G00 Z2.5400 
G00 X6.9468 Y25.5262 
G01 Z-0.1778 F254.00 
G01 X7.0309 Y25.6521 F508.00 
G01 X7.0888 Y25.7919 
G01 X7.1183 Y25.9403 
G01 X7.1183 Y27.3997 
G01 X7.0888 Y27.5481 
G01 X7.0309 Y27.6879 
G01 X6.9468 Y27.8138 
G01 X6.8816 Y27.8789 
G01 X11.2171 Y32.2144 
G01 X11.3430 Y32.1945 
G01 X11.5170 Y32.1945 
G01 X11.6887 Y32.2217 
G01 X11.8541 Y32.2754 
G01 X12.0091 Y32.3544 
G01 X12.1498 Y32.4566 
G01 X12.2728 Y32.5796 
G01 X12.3750 Y32.7203 
G01 X12.4539 Y32.8753 
G01 X12.5077 Y33.0407 
G01 X12.5349 Y33.2124 
G01 X12.5349 Y35.3676 
G01 X12.5077 Y35.5393 
G01 X12.4539 Y35.7047 
G01 X12.3750 Y35.8597 
G01 X12.2728 Y36.0004 
G01 X12.1498 Y36.1234 
G01 X12.0091 Y36.2256 
G01 X11.8541 Y36.3045 
G01 X11.6887 Y36.3583 
G01 X11.5170 Y36.3855 
G01 X11.3430 Y36.3855 
G01 X11.1713 Y36.3583 
G01 X11.0059 Y36.3045 
G01 X10.8509 Y36.2256 
G01 X10.7102 Y36.1234 
G01 X10.5872 Y36.0004 
G01 X10.4850 Y35.8597 
G01 X10.4061 Y35.7047 
G01 X10.3523 Y35.5393 
G01 X10.3251 Y35.3676 
G01 X10.3251 Y33.2124 
G01 X10.3523 Y33.0407 
G01 X10.4061 Y32.8753 
G01 X10.4850 Y32.7203 
G01 X10.5071 Y32.6898 
G01 X6.0146 Y28.1973 
G01 X5.9595 Y28.1018 
G01 X5.9309 Y27.9952 
G01 X5.9309 Y27.9680 
G01 X5.8602 Y27.9208 
G01 X5.7532 Y27.8138 
G01 X5.6691 Y27.6879 
G01 X5.6112 Y27.5481 
G01 X5.5817 Y27.3997 
G01 X5.5817 Y25.9403 
G01 X5.6112 Y25.7919 
G01 X5.6691 Y25.6521 
G01 X5.7532 Y25.5262 
G01 X5.8602 Y25.4192 
G01 X5.9861 Y25.3351 
G01 X6.1259 Y25.2772 
G01 X6.2743 Y25.2477 
G01 X6.4257 Y25.2477 
G01 X6.5741 Y25.2772 
G01 X6.7139 Y25.3351 
G01 X6.8398 Y25.4192 
G01 X6.9468 Y25.5262 
G00 Z2.5400 
G00 X4.4068 Y25.5262 
G01 Z-0.1778 F254.00 
G01 X4.4909 Y25.6521 F508.00 
G01 X4.5488 Y25.7919 
G01 X4.5783 Y25.9403 
G01 X4.5783 Y27.3997 
G01 X4.5488 Y27.5481 
G01 X4.4909 Y27.6879 
G01 X4.4068 Y27.8138 
G01 X4.3416 Y27.8789 
G01 X8.6771 Y32.2144 
G01 X8.8030 Y32.1945 
G01 X8.9770 Y32.1945 
G01 X9.1487 Y32.2217 
G01 X9.3141 Y32.2754 
G01 X9.4691 Y32.3544 
G01 X9.6098 Y32.4566 
G01 X9.7328 Y32.5796 
G01 X9.8350 Y32.7203 
G01 X9.9139 Y32.8753 
G01 X9.9677 Y33.0407 
G01 X9.9949 Y33.2124 
G01 X9.9949 Y35.3676 
G01 X9.9677 Y35.5393 
G01 X9.9139 Y35.7047 
G01 X9.8350 Y35.8597 
G01 X9.7328 Y36.0004 
G01 X9.6098 Y36.1234 
G01 X9.4691 Y36.2256 
G01 X9.3141 Y36.3045 
G01 X9.1487 Y36.3583 
G01 X8.9770 Y36.3855 
G01 X8.8030 Y36.3855 
G01 X8.6313 Y36.3583 
G01 X8.4659 Y36.3045 
G01 X8.3109 Y36.2256 
G01 X8.1702 Y36.1234 
G01 X8.0472 Y36.0004 
G01 X7.9450 Y35.8597 
G01 X7.8661 Y35.7047 
G01 X7.8123 Y35.5393 
G01 X7.7851 Y35.3676 
G01 X7.7851 Y33.2124 
G01 X7.8123 Y33.0407 
G01 X7.8661 Y32.8753 
G01 X7.9450 Y32.7203 
G01 X7.9671 Y32.6898 
G01 X3.4746 Y28.1973 
G01 X3.4195 Y28.1018 
G01 X3.3909 Y27.9952 
G01 X3.3909 Y27.9680 
G01 X3.3202 Y27.9208 
G01 X3.2132 Y27.8138 
G01 X3.1291 Y27.6879 
G01 X3.0712 Y27.5481 
G01 X3.0417 Y27.3997 
G01 X3.0417 Y25.9403 
G01 X3.0712 Y25.7919 
G01 X3.1291 Y25.6521 
G01 X3.2132 Y25.5262 
G01 X3.3202 Y25.4192 
G01 X3.4461 Y25.3351 
G01 X3.5859 Y25.2772 
G01 X3.7343 Y25.2477 
G01 X3.8857 Y25.2477 
G01 X4.0341 Y25.2772 
G01 X4.1739 Y25.3351 
G01 X4.2998 Y25.4192 
G01 X4.4068 Y25.5262 
G00 Z2.5400 
G00 X1.8668 Y25.5262 
G01 Z-0.1778 F254.00 
G01 X1.9509 Y25.6521 F508.00 
G01 X2.0088 Y25.7919 
G01 X2.0383 Y25.9403 
G01 X2.0383 Y27.3997 
G01 X2.0088 Y27.5481 
G01 X1.9509 Y27.6879 
G01 X1.8668 Y27.8138 
G01 X1.8016 Y27.8789 
G01 X6.1371 Y32.2144 
G01 X6.2630 Y32.1945 
G01 X6.4370 Y32.1945 
G01 X6.6087 Y32.2217 
G01 X6.7741 Y32.2754 
G01 X6.9291 Y32.3544 
G01 X7.0698 Y32.4566 
G01 X7.1928 Y32.5796 
G01 X7.2950 Y32.7203 
G01 X7.3739 Y32.8753 
G01 X7.4277 Y33.0407 
G01 X7.4549 Y33.2124 
G01 X7.4549 Y35.3676 
G01 X7.4277 Y35.5393 
G01 X7.3739 Y35.7047 
G01 X7.2950 Y35.8597 
G01 X7.1928 Y36.0004 
G01 X7.0698 Y36.1234 
G01 X6.9291 Y36.2256 
G01 X6.7741 Y36.3045 
G01 X6.6087 Y36.3583 
G01 X6.4370 Y36.3855 
G01 X6.2630 Y36.3855 
G01 X6.0913 Y36.3583 
G01 X5.9259 Y36.3045 
G01 X5.7709 Y36.2256 
G01 X5.6302 Y36.1234 
G01 X5.5072 Y36.0004 
G01 X5.4050 Y35.8597 
G01 X5.3261 Y35.7047 
G01 X5.2723 Y35.5393 
G01 X5.2451 Y35.3676 
G01 X5.2451 Y33.2124 
G01 X5.2723 Y33.0407 
G01 X5.3261 Y32.8753 
G01 X5.4050 Y32.7203 
G01 X5.4271 Y32.6898 
G01 X0.9346 Y28.1973 
G01 X0.8795 Y28.1018 
G01 X0.8509 Y27.9952 
G01 X0.8509 Y27.9680 
G01 X0.7802 Y27.9208 
G01 X0.6732 Y27.8138 
G01 X0.5891 Y27.6879 
G01 X0.5312 Y27.5481 
G01 X0.5017 Y27.3997 
G01 X0.5017 Y25.9403 
G01 X0.5312 Y25.7919 
G01 X0.5891 Y25.6521 
G01 X0.6732 Y25.5262 
G01 X0.7802 Y25.4192 
G01 X0.9061 Y25.3351 
G01 X1.0459 Y25.2772 
G01 X1.1943 Y25.2477 
G01 X1.3457 Y25.2477 
G01 X1.4941 Y25.2772 
G01 X1.6339 Y25.3351 
G01 X1.7598 Y25.4192 
G01 X1.8668 Y25.5262 
G00 Z2.5400 
G00 X3.3202 Y12.6808 
G01 Z-0.1778 F254.00 
G01 X3.2132 Y12.5738 F508.00 
G01 X3.1291 Y12.4479 
G01 X3.0712 Y12.3081 
G01 X3.0417 Y12.1597 
G01 X3.0417 Y10.7003 
G01 X3.0712 Y10.5519 
G01 X3.1291 Y10.4121 
G01 X3.2132 Y10.2862 
G01 X3.3202 Y10.1792 
G01 X3.4461 Y10.0951 
G01 X3.5859 Y10.0372 
G01 X3.7343 Y10.0077 
G01 X3.8857 Y10.0077 
G01 X4.0341 Y10.0372 
G01 X4.1739 Y10.0951 
G01 X4.2998 Y10.1792 
G01 X4.4068 Y10.2862 
G01 X4.4909 Y10.4121 
G01 X4.5488 Y10.5519 
G01 X4.5783 Y10.7003 
G01 X4.5783 Y12.1597 
G01 X4.5488 Y12.3081 
G01 X4.4909 Y12.4479 
G01 X4.4068 Y12.5738 
G01 X4.2998 Y12.6808 
G01 X4.1739 Y12.7649 
G01 X4.0341 Y12.8228 
G01 X3.8857 Y12.8523 
G01 X3.7343 Y12.8523 
G01 X3.5859 Y12.8228 
G01 X3.4461 Y12.7649 
G01 X3.3202 Y12.6808 
G00 Z2.5400 
G00 X5.8602 Y12.6808 
G01 Z-0.1778 F254.00 
G01 X5.7532 Y12.5738 F508.00 
G01 X5.6691 Y12.4479 
G01 X5.6112 Y12.3081 
G01 X5.5817 Y12.1597 
G01 X5.5817 Y10.7003 
G01 X5.6112 Y10.5519 
G01 X5.6691 Y10.4121 
G01 X5.7532 Y10.2862 
G01 X5.8602 Y10.1792 
G01 X5.9861 Y10.0951 
G01 X6.1259 Y10.0372 
G01 X6.2743 Y10.0077 
G01 X6.4257 Y10.0077 
G01 X6.5741 Y10.0372 
G01 X6.7139 Y10.0951 
G01 X6.8398 Y10.1792 
G01 X6.9468 Y10.2862 
G01 X7.0309 Y10.4121 
G01 X7.0888 Y10.5519 
G01 X7.1183 Y10.7003 
G01 X7.1183 Y12.1597 
G01 X7.0888 Y12.3081 
G01 X7.0309 Y12.4479 
G01 X6.9468 Y12.5738 
G01 X6.8398 Y12.6808 
G01 X6.7139 Y12.7649 
G01 X6.5741 Y12.8228 
G01 X6.4257 Y12.8523 
G01 X6.2743 Y12.8523 
G01 X6.1259 Y12.8228 
G01 X5.9861 Y12.7649 
G01 X5.8602 Y12.6808 
G00 Z2.5400 
G00 Z2.540000
G00 X31.7500 Y3.8100 
G01 Z-0.2794 F508.00 
G01 Z2.540000
(R2.5400  P1.000000)
G00 X8.8900 Y3.8100 
G01 Z-0.812800
G01 Z2.540000
G00 X11.4300 Y3.8100 
G01 Z-0.812800
G01 Z2.540000
G00 X13.9700 Y3.8100 
G01 Z-0.812800
G01 Z2.540000
G00 X16.5100 Y3.8100 
G01 Z-0.812800
G01 Z2.540000
G00 X19.0500 Y3.8100 
G01 Z-0.812800
G01 Z2.540000
G00 X21.5900 Y3.8100 
G01 Z-0.812800
G01 Z2.540000
G00 X24.1300 Y3.8100 
G01 Z-0.812800
G01 Z2.540000
G00 X26.6700 Y3.8100 
G01 Z-0.812800
G01 Z2.540000
G00 X31.7500 Y34.2900 
G01 Z-0.812800
G01 Z2.540000
G00 X29.2100 Y34.2900 
G01 Z-0.812800
G01 Z2.540000
G00 X26.6700 Y34.2900 
G01 Z-0.812800
G01 Z2.540000
G00 X24.1300 Y34.2900 
G01 Z-0.812800
G01 Z2.540000
G00 X21.5900 Y34.2900 
G01 Z-0.812800
G01 Z2.540000
G00 X19.0500 Y34.2900 
G01 Z-0.812800
G01 Z2.540000
G00 X16.5100 Y34.2900 
G01 Z-0.812800
G01 Z2.540000
G00 X13.9700 Y34.2900 
G01 Z-0.812800
G01 Z2.540000
G00 X11.4300 Y34.2900 
G01 Z-0.812800
G01 Z2.540000
G00 X8.8900 Y34.2900 
G01 Z-0.812800
G01 Z2.540000
G00 X6.3500 Y34.2900 
G01 Z-0.812800
G01 Z2.540000
G00 X3.8100 Y3.8100 
G01 Z-0.812800
G01 Z2.540000
G00 X19.0500 Y26.6700 
G01 Z-0.812800
G01 Z2.540000
G00 X16.5100 Y26.6700 
G01 Z-0.812800
G01 Z2.540000
G00 X13.9700 Y26.6700 
G01 Z-0.812800
G01 Z2.540000
G00 X11.4300 Y26.6700 
G01 Z-0.812800
G01 Z2.540000
G00 X8.8900 Y26.6700 
G01 Z-0.812800
G01 Z2.540000
G00 X6.3500 Y26.6700 
G01 Z-0.812800
G01 Z2.540000
G00 X3.8100 Y26.6700 
G01 Z-0.812800
G01 Z2.540000
G00 X1.2700 Y26.6700 
G01 Z-0.812800
G01 Z2.540000
G00 X21.5900 Y26.6700 
G01 Z-0.812800
G01 Z2.540000
G00 X24.1300 Y26.6700 
G01 Z-0.812800
G01 Z2.540000
G00 X26.6700 Y26.6700 
G01 Z-0.812800
G01 Z2.540000
G00 X29.2100 Y26.6700 
G01 Z-0.812800
G01 Z2.540000
G00 X31.7500 Y26.6700 
G01 Z-0.812800
G01 Z2.540000
G00 X34.2900 Y26.6700 
G01 Z-0.812800
G01 Z2.540000
G00 X36.8300 Y26.6700 
G01 Z-0.812800
G01 Z2.540000
G00 X1.2700 Y11.4300 
G01 Z-0.812800
G01 Z2.540000
G00 X3.8100 Y11.4300 
G01 Z-0.812800
G01 Z2.540000
G00 X6.3500 Y11.4300 
G01 Z-0.812800
G01 Z2.540000
G00 X8.8900 Y11.4300 
G01 Z-0.812800
G01 Z2.540000
G00 X11.4300 Y11.4300 
G01 Z-0.812800
G01 Z2.540000
G00 X13.9700 Y11.4300 
G01 Z-0.812800
G01 Z2.540000
G00 X16.5100 Y11.4300 
G01 Z-0.812800
G01 Z2.540000
G00 X19.0500 Y11.4300 
G01 Z-0.812800
G01 Z2.540000
G00 X21.5900 Y11.4300 
G01 Z-0.812800
G01 Z2.540000
G00 X24.1300 Y11.4300 
G01 Z-0.812800
G01 Z2.540000
G00 X26.6700 Y11.4300 
G01 Z-0.812800
G01 Z2.540000
G00 X29.2100 Y11.4300 
G01 Z-0.812800
G01 Z2.540000
G00 X31.7500 Y11.4300 
G01 Z-0.812800
G01 Z2.540000
G00 X34.2900 Y11.4300 
G01 Z-0.812800
G01 Z2.540000
G00 X36.8300 Y11.4300 
G01 Z-0.812800
G01 Z2.540000
G00 X34.2900 Y3.8100 
G01 Z-0.812800
G01 Z2.540000
G00 X34.2900 Y22.8600 
G01 Z-0.812800
G01 Z2.540000
G00 X34.2900 Y15.2400 
G01 Z-0.812800
G01 Z2.540000
G00 X20.3200 Y22.8600 
G01 Z-0.812800
G01 Z2.540000
G00 X27.9400 Y22.8600 
G01 Z-0.812800
G01 Z2.540000
G00 X20.3200 Y20.3200 
G01 Z-0.812800
G01 Z2.540000
G00 X27.9400 Y20.3200 
G01 Z-0.812800
G01 Z2.540000
G00 X20.3200 Y17.7800 
G01 Z-0.812800
G01 Z2.540000
G00 X27.9400 Y17.7800 
G01 Z-0.812800
G01 Z2.540000
G00 X20.3200 Y15.2400 
G01 Z-0.812800
G01 Z2.540000
G00 X27.9400 Y15.2400 
G01 Z-0.812800
G01 Z2.540000
G00 X7.6200 Y22.8600 
G01 Z-0.812800
G01 Z2.540000
G00 X15.2400 Y22.8600 
G01 Z-0.812800
G01 Z2.540000
G00 X7.6200 Y20.3200 
G01 Z-0.812800
G01 Z2.540000
G00 X15.2400 Y20.3200 
G01 Z-0.812800
G01 Z2.540000
G00 X7.6200 Y17.7800 
G01 Z-0.812800
G01 Z2.540000
G00 X15.2400 Y17.7800 
G01 Z-0.812800
G01 Z2.540000
G00 X7.6200 Y15.2400 
G01 Z-0.812800
G01 Z2.540000
G00 X15.2400 Y15.2400 
G01 Z-0.812800
G01 Z2.540000
G00 Z12.7000 
M05
M02
